icons/lines/simcard.svg

<svg xmlns="http://www.w3.org/2000/svg" width="24" height="24" viewBox="0 0 24 24" fill="none" stroke="currentColor" stroke-width="2" stroke-linecap="round" stroke-linejoin="round" >
  <path d="M19.54 6.53998L16.47 3.46997C15.53 2.52997 14.26 2.01001 12.93 2.01001H8C5 2.01001 3 4.01001 3 7.01001V17.01C3 20.01 5 22.01 8 22.01H16C19 22.01 21 20.01 21 17.01V10.08C21 8.74002 20.47 7.46998 19.54 6.53998Z"/>
  <path d="M9.5 14L7.5 16L9.5 18"/>
  <path d="M14.5 14L16.5 16L14.5 18"/>
  </svg>

<svg xmlns="http://www.w3.org/2000/svg" width="24" height="24" viewBox="0 0 24 24" fill="none" stroke="currentColor" stroke-width="2" stroke-linecap="round" stroke-linejoin="round">
  <path d="m14.5 14 2 2-2 2" />
  <path d="M16.47 3.47a5 5 0 0 0-3.54-1.46H8c-3 0-5 2-5 5v10c0 3 2 5 5 5h8c3 0 5-2 5-5v-6.93a5 5 0 0 0-1.46-3.54z" />
  <path d="m9.5 14-2 2 2 2" />
</svg>
